suite-common/icons/assets/icons/backspace.svg

<svg xmlns="http://www.w3.org/2000/svg" xml:space="preserve" fill="none" viewBox="0 0 24 24">
  <path fill="#000" fill-rule="evenodd" d="M6.06 4.798a1.75 1.75 0 0 0-.683.394c-.1.1-.965 1.501-2.317 3.754a347 347 0 0 0-2.228 3.742.74.74 0 0 0 0 .624c.039.081 1.042 1.765 2.228 3.742 1.354 2.255 2.217 3.654 2.317 3.754.088.087.268.216.401.286l.242.126 7.18.012c5.228.009 7.237 0 7.39-.033.445-.095.879-.466 1.054-.9l.096-.239V5.94l-.096-.239c-.168-.417-.588-.787-1.015-.895-.209-.052-14.356-.061-14.569-.008M20.24 13v6.76l-6.91-.01-6.91-.01-2.008-3.34c-1.105-1.837-2.01-3.364-2.01-3.393C2.4 12.96 6.164 6.645 6.369 6.35l.076-.11H20.24zm-10.073-2.914c-.302.149-.457.494-.388.861.024.132.16.286.973 1.103l.945.951-.926.929c-.509.512-.945.981-.969 1.043-.167.445.145.964.613 1.016.345.039.416-.011 1.416-1.003l.931-.924.909.908C14.588 15.886 14.736 16 15 16c.256 0 .546-.181.67-.419.082-.159.078-.49-.009-.662-.039-.076-.468-.539-.954-1.029l-.885-.89.885-.89c.486-.49.915-.953.954-1.029.087-.172.091-.503.009-.662-.124-.238-.414-.419-.67-.419-.264 0-.411.114-1.33 1.031l-.909.908-.911-.908c-.585-.583-.963-.929-1.059-.969a.73.73 0 0 0-.624.024"/>
</svg>

<svg xmlns="http://www.w3.org/2000/svg" xml:space="preserve" fill="none" viewBox="0 0 24 24"><path d="M6.060 4.798 C 5.851 4.849,5.542 5.028,5.377 5.192 C 5.277 5.292,4.412 6.693,3.060 8.946 C 1.874 10.923,0.871 12.607,0.832 12.688 C 0.740 12.877,0.740 13.123,0.832 13.312 C 0.871 13.393,1.874 15.077,3.060 17.054 C 4.414 19.309,5.277 20.708,5.377 20.808 C 5.465 20.895,5.645 21.024,5.778 21.094 L 6.020 21.220 13.200 21.232 C 18.428 21.241,20.437 21.232,20.590 21.199 C 21.035 21.104,21.469 20.733,21.644 20.299 L 21.740 20.060 21.740 13.000 L 21.740 5.940 21.644 5.701 C 21.476 5.284,21.056 4.914,20.629 4.806 C 20.420 4.754,6.273 4.745,6.060 4.798 M20.240 13.000 L 20.240 19.760 13.330 19.750 L 6.420 19.740 4.412 16.400 C 3.307 14.563,2.402 13.036,2.402 13.007 C 2.400 12.960,6.164 6.645,6.369 6.350 L 6.445 6.240 13.343 6.240 L 20.240 6.240 20.240 13.000 M10.167 10.086 C 9.865 10.235,9.710 10.580,9.779 10.947 C 9.803 11.079,9.939 11.233,10.752 12.050 L 11.697 13.001 10.771 13.930 C 10.262 14.442,9.826 14.911,9.802 14.973 C 9.635 15.418,9.947 15.937,10.415 15.989 C 10.760 16.028,10.831 15.978,11.831 14.986 L 12.762 14.062 13.671 14.970 C 14.588 15.886,14.736 16.000,15.000 16.000 C 15.256 16.000,15.546 15.819,15.670 15.581 C 15.752 15.422,15.748 15.091,15.661 14.919 C 15.622 14.843,15.193 14.380,14.707 13.890 L 13.822 13.000 14.707 12.110 C 15.193 11.620,15.622 11.157,15.661 11.081 C 15.748 10.909,15.752 10.578,15.670 10.419 C 15.546 10.181,15.256 10.000,15.000 10.000 C 14.736 10.000,14.589 10.114,13.670 11.031 L 12.761 11.939 11.850 11.031 C 11.265 10.448,10.887 10.102,10.791 10.062 C 10.586 9.976,10.371 9.984,10.167 10.086 " stroke="none" fill-rule="evenodd" fill="black"></path></svg>
